X:1
T:Holy Trinity, CM
T:Joseph Barnby, 1861
T:Holy Trinity, CM
T:Public Domain
C:Joseph Barnby, 1861
Z:Public Domain
%%score ( 1 2 ) ( 3 4 )
L:1/8
M:4/4
K:Eb
V:1 treble 
V:2 treble 
V:3 bass 
V:4 bass 
V:1
 [Ge]2 | [Gd]2 [Gc]2 [_GB]2 [G=A]2 | [_Gc]3 [Gc] [FB]2 [FA]2 | [EG]2 [_DG]2 [CG]2 [CF]2 | %4
 (E4 D2) [B,G]2 | [DG]2 [CA]2 [B,B]2 [EB]2 | [D=B]3 [DB] [Cc]2 [CF]2 | [B,G]2 [EB]2 [DG]3 [DF] | %8
 E6 |] %9
V:2
 x2 | x8 | x8 | x8 | B,6 x2 | x8 | x8 | x8 | E6 |] %9
V:3
 [E,B,]2 | [E,B,]2 [E,E]2 [E,C]2 [E,C]2 | [E,=A,]3 [E,A,] [D,B,]2 [D,B,]2 | %3
 [E,B,]2 [E,B,]2 [A,,B,]2 [A,,A,]2 | (G,4 F,2) E,2 | [E,B,]2 [E,A,]2 [E,G,]2 G,2 | %6
 [G,,F,]3 [G,,F,] [A,,E,]2 [=A,,E,]2 | [B,,E,]2 [B,,G,]2 [B,,B,]3 [B,,A,] | [E,G,]6 |] %9
V:4
 x2 | x8 | x8 | x8 | B,,6 E,2 | x6 G,2 | x8 | x8 | x6 |] %9

